; generated by PrusaSlicer 2.5.0+win64 on 2022-09-23 at 18:47:10 UTC


;
;
; 

; external perimeters extrusion width = 0.60mm
; perimeters extrusion width = 0.50mm
; infill extrusion width = 0.50mm
; solid infill extrusion width = 0.50mm
; top infill extrusion width = 0.45mm
; support material extrusion width = 0.38mm
; first layer extrusion width = 0.42mm

M73 P0 R11
M73 Q0 S11
M201 X1000 Y1000 Z200 E5000 ; sets maximum accelerations, mm/sec^2
M203 X200 Y200 Z12 E120 ; sets maximum feedrates, mm / sec
M204 P1250 R1250 T1250 ; sets acceleration (P, T) and retract acceleration (R), mm/sec^2
M205 X8.00 Y8.00 Z0.40 E4.50 ; sets the jerk limits, mm/sec
M205 S0 T0 ; sets the minimum extruding and travel feed rate, mm/sec
M107
;TYPE:Custom
M862.3 P "MK3S" ; printer model check
M862.1 P0.4 ; nozzle diameter check
M115 U3.11.0 ; tell printer latest fw version
G90 ; use absolute coordinates
M83 ; extruder relative mode
M104 S215 ; set extruder temp
M140 S60 ; set bed temp
M190 S60 ; wait for bed temp
M109 S215 ; wait for extruder temp
G28 W ; home all without mesh bed level
G80 ; mesh bed leveling

G1 Z0.2 F720
G1 Y-3 F1000 ; go outside print area
G92 E0
G1 X60 E9 F1000 ; intro line
G1 X100 E12.5 F1000 ; intro line

G92 E0
M221 S95

; Don't change E values below. Excessive value can damage the printer.

M907 E538 ; set extruder motor current
G21 ; set units to millimeters
G90 ; use absolute coordinates
M83 ; use relative distances for extrusion
M900 K0.05 ; Filament gcode LA 1.5
M900 K30 ; Filament gcode LA 1.0
M107
;LAYER_CHANGE
;Z:0.2
;HEIGHT:0.2
;BEFORE_LAYER_CHANGE
G92 E0.0
;0.2


G1 E-.8 F2100
G1 Z.4 F720
;AFTER_LAYER_CHANGE
;0.2
G1 X106.173 Y89.167 F10800
G1 Z.2 F720
M73 Q1 S11
G1 E.8 F2100
M204 S800
;TYPE:Skirt/Brim
;WIDTH:0.42
G1 F1200
G1 X107.219 Y88.291 E.04278
G1 X108.159 Y88.097 E.03008
M73 P1 R11
G1 X141.841 Y88.097 E1.0561
G1 X143.148 Y88.489 E.04278
G1 X144.025 Y89.534 E.04278
G1 X144.219 Y90.474 E.03008
G1 X144.219 Y119.526 E.91089
G1 X143.827 Y120.833 E.04278
G1 X142.781 Y121.709 E.04278
G1 X141.841 Y121.903 E.03008
G1 X108.159 Y121.903 E1.0561
G1 X106.852 Y121.511 E.04278
G1 X105.975 Y120.466 E.04278
G1 X105.781 Y119.526 E.03008
G1 X105.781 Y90.474 E.91089
G1 X106.156 Y89.225 E.0409
M204 S1000
; printing object Nina_hook_v1.stl id:0 copy 0
;WIPE_START
M73 Q2 S11
G1 F8640
G1 X107.219 Y88.291 E-.32671
G1 X108.159 Y88.097 E-.22155
G1 X109.076 Y88.097 E-.21174
;WIPE_END
G1 E-.04 F2100
G1 Z.6 F720
G1 X141.841 Y119.526 F10800
M73 P2 R11
G1 Z.2 F720
G1 E.8 F2100
M204 S800
;TYPE:Support material
G1 F1200
G1 X108.159 Y119.526 E1.0561
G1 X108.159 Y90.474 E.91089
G1 X141.841 Y90.474 E1.0561
G1 X141.841 Y119.469 E.90912
M204 S1000
;WIPE_START
G1 F8640
M73 Q3 S11
G1 X141.841 Y116.178 E-.76
;WIPE_END
G1 E-.04 F2100
G1 Z.6 F720
G1 X114.467 Y95.776 F10800
G1 Z.2 F720
M73 P3 R11
G1 E.8 F2100
M204 S800
G1 F1200
G1 X114.082 Y95.815 E.01214
G1 X113.725 Y95.922 E.01167
G1 X113.371 Y96.109 E.01256
G1 X113.094 Y96.333 E.01116
G1 X112.84 Y96.631 E.01227
G1 X112.704 Y96.859 E.00835
G1 X112.567 Y97.202 E.01157
G1 X112.494 Y97.592 E.01246
G1 X112.487 Y112.278 E.46046
G1 X112.499 Y112.464 E.00582
G1 X112.56 Y112.773 E.00989
G1 X112.707 Y113.147 E.01258
G1 X112.942 Y113.504 E.01344
G1 X113.228 Y113.785 E.01256
G1 X113.539 Y113.991 E.01169
G1 X113.86 Y114.127 E.01094
G1 X114.118 Y114.192 E.00835
G1 X114.457 Y114.224 E.01066
G1 X135.533 Y114.224 E.66083
G1 X135.937 Y114.181 E.01273
G1 X136.14 Y114.127 E.00659
G1 X136.431 Y114.006 E.00987
G1 X136.794 Y113.768 E.01363
G1 X137.075 Y113.482 E.01256
G1 X137.281 Y113.171 E.01169
G1 X137.417 Y112.85 E.01094
G1 X137.482 Y112.592 E.00835
G1 X137.514 Y112.253 E.01066
G1 X137.514 Y97.757 E.45452
G1 X137.471 Y97.353 E.01274
G1 X137.417 Y97.15 E.00659
G1 X137.296 Y96.859 E.00988
G1 X137.058 Y96.496 E.01363
G1 X136.772 Y96.215 E.01256
G1 X136.461 Y96.009 E.01169
G1 X136.14 Y95.873 E.01094
G1 X135.882 Y95.808 E.00835
G1 X135.543 Y95.776 E.01066
G1 X114.524 Y95.776 E.65905
M204 S1000
;WIPE_START
G1 F8640
G1 X117.815 Y95.776 E-.76
;WIPE_END
G1 E-.04 F2100
G1 Z.6 F720
G1 X141.34 Y119.356 F10800
G1 Z.2 F720
G1 E.8 F2100
M204 S800
G1 F1200
G1 X141.34 Y90.814 E.89493
G1 X140.921 Y90.814 E.01314
G1 X140.921 Y119.186 E.88961
G1 X140.502 Y119.186 E.01314
M73 P4 R11
M73 Q4 S11
G1 X140.502 Y90.814 E.88961
G1 X140.083 Y90.814 E.01314
G1 X140.083 Y119.186 E.88961
G1 X139.664 Y119.186 E.01314
G1 X139.664 Y90.814 E.88961
G1 X139.245 Y90.814 E.01314
G1 X139.245 Y119.186 E.88961
G1 X138.826 Y119.186 E.01314
G1 X138.826 Y90.814 E.88961
M73 Q5 S11
G1 X138.407 Y90.814 E.01314
M73 P5 R11
G1 X138.407 Y119.186 E.88961
G1 X137.988 Y119.186 E.01314
G1 X137.988 Y90.814 E.88961
G1 X137.569 Y90.814 E.01314
G1 X137.569 Y96.649 E.18296
G1 X137.353 Y96.322 E.01229
G1 X137.15 Y96.097 E.00949
G1 X137.15 Y90.814 E.16565
G1 X136.731 Y90.814 E.01314
G1 X136.731 Y95.774 E.15554
G1 X136.312 Y95.575 E.01455
G1 X136.312 Y90.814 E.14928
G1 X135.893 Y90.814 E.01314
G1 X135.893 Y95.467 E.14591
G1 X135.474 Y95.437 E.01317
G1 X135.474 Y90.814 E.14496
G1 X135.055 Y90.814 E.01314
G1 X135.055 Y95.437 E.14496
G1 X134.636 Y95.437 E.01314
G1 X134.636 Y90.814 E.14496
G1 X134.217 Y90.814 E.01314
G1 X134.217 Y95.437 E.14496
G1 X133.799 Y95.437 E.01314
G1 X133.799 Y90.814 E.14496
G1 X133.38 Y90.814 E.01314
M73 Q6 S11
G1 X133.38 Y95.437 E.14496
G1 X132.961 Y95.437 E.01314
G1 X132.961 Y90.814 E.14496
M73 P6 R11
G1 X132.542 Y90.814 E.01314
G1 X132.542 Y95.437 E.14496
G1 X132.123 Y95.437 E.01314
G1 X132.123 Y90.814 E.14496
G1 X131.704 Y90.814 E.01314
G1 X131.704 Y95.437 E.14496
G1 X131.285 Y95.437 E.01314
G1 X131.285 Y90.814 E.14496
G1 X130.866 Y90.814 E.01314
G1 X130.866 Y95.437 E.14496
G1 X130.447 Y95.437 E.01314
G1 X130.447 Y90.814 E.14496
G1 X130.028 Y90.814 E.01314
G1 X130.028 Y95.437 E.14496
G1 X129.609 Y95.437 E.01314
G1 X129.609 Y90.814 E.14496
G1 X129.19 Y90.814 E.01314
G1 X129.19 Y95.437 E.14496
G1 X128.771 Y95.437 E.01314
G1 X128.771 Y90.814 E.14496
G1 X128.352 Y90.814 E.01314
G1 X128.352 Y95.437 E.14496
G1 X127.933 Y95.437 E.01314
G1 X127.933 Y90.814 E.14496
G1 X127.514 Y90.814 E.01314
G1 X127.514 Y95.437 E.14496
G1 X127.095 Y95.437 E.01314
G1 X127.095 Y90.814 E.14496
G1 X126.676 Y90.814 E.01314
G1 X126.676 Y95.437 E.14496
G1 X126.257 Y95.437 E.01314
G1 X126.257 Y90.814 E.14496
G1 X125.838 Y90.814 E.01314
G1 X125.838 Y95.437 E.14496
G1 X125.419 Y95.437 E.01314
G1 X125.419 Y90.814 E.14496
G1 X125 Y90.814 E.01314
G1 X125 Y95.437 E.14496
G1 X124.581 Y95.437 E.01314
G1 X124.581 Y90.814 E.14496
G1 X124.162 Y90.814 E.01314
G1 X124.162 Y95.437 E.14496
G1 X123.743 Y95.437 E.01314
G1 X123.743 Y90.814 E.14496
G1 X123.324 Y90.814 E.01314
G1 X123.324 Y95.437 E.14496
G1 X122.905 Y95.437 E.01314
G1 X122.905 Y90.814 E.14496
G1 X122.486 Y90.814 E.01314
G1 X122.486 Y95.437 E.14496
G1 X122.067 Y95.437 E.01314
M73 Q7 S11
G1 X122.067 Y90.814 E.14496
G1 X121.648 Y90.814 E.01314
M73 P7 R11
G1 X121.648 Y95.437 E.14496
G1 X121.229 Y95.437 E.01314
G1 X121.229 Y90.814 E.14496
G1 X120.81 Y90.814 E.01314
G1 X120.81 Y95.437 E.14496
G1 X120.391 Y95.437 E.01314
G1 X120.391 Y90.814 E.14496
G1 X119.972 Y90.814 E.01314
G1 X119.972 Y95.437 E.14496
G1 X119.553 Y95.437 E.01314
G1 X119.553 Y90.814 E.14496
G1 X119.134 Y90.814 E.01314
G1 X119.134 Y95.437 E.14496
G1 X118.715 Y95.437 E.01314
G1 X118.715 Y90.814 E.14496
G1 X118.296 Y90.814 E.01314
G1 X118.296 Y95.437 E.14496
G1 X117.877 Y95.437 E.01314
G1 X117.877 Y90.814 E.14496
G1 X117.458 Y90.814 E.01314
G1 X117.458 Y95.437 E.14496
G1 X117.039 Y95.437 E.01314
G1 X117.039 Y90.814 E.14496
G1 X116.62 Y90.814 E.01314
G1 X116.62 Y95.437 E.14496
G1 X116.201 Y95.437 E.01314
G1 X116.201 Y90.814 E.14496
G1 X115.783 Y90.814 E.01314
G1 X115.783 Y95.437 E.14496
G1 X115.364 Y95.437 E.01314
G1 X115.364 Y90.814 E.14496
G1 X114.945 Y90.814 E.01314
G1 X114.945 Y95.437 E.14496
G1 X114.526 Y95.437 E.01314
G1 X114.526 Y90.814 E.14496
G1 X114.107 Y90.814 E.01314
M73 P7 R10
G1 X114.107 Y95.467 E.14591
G1 X113.688 Y95.575 E.01356
G1 X113.688 Y90.814 E.14928
G1 X113.269 Y90.814 E.01314
G1 X113.269 Y95.774 E.15554
G1 X113.032 Y95.937 E.00901
G1 X112.85 Y96.097 E.0076
G1 X112.85 Y90.814 E.16565
G1 X112.431 Y90.814 E.01314
G1 X112.431 Y96.649 E.18296
G1 X112.317 Y96.889 E.00834
M73 Q7 S10
G1 X112.239 Y97.112 E.0074
G1 X112.163 Y97.49 E.01209
G1 X112.147 Y97.754 E.00829
G1 X112.147 Y112.246 E.45439
G1 X112.163 Y112.51 E.00829
M73 P8 R10
M73 Q8 S10
G1 X112.239 Y112.888 E.01209
G1 X112.317 Y113.111 E.0074
G1 X112.431 Y113.351 E.00834
G1 X112.431 Y119.186 E.18296
G1 X112.85 Y119.186 E.01314
G1 X112.85 Y113.903 E.16565
G1 X113.032 Y114.063 E.0076
G1 X113.269 Y114.226 E.00901
G1 X113.269 Y119.186 E.15554
G1 X113.688 Y119.186 E.01314
G1 X113.688 Y114.425 E.14928
G1 X114.107 Y114.533 E.01356
G1 X114.107 Y119.186 E.14591
G1 X114.526 Y119.186 E.01314
G1 X114.526 Y114.563 E.14496
G1 X114.945 Y114.563 E.01314
G1 X114.945 Y119.186 E.14496
G1 X115.364 Y119.186 E.01314
G1 X115.364 Y114.563 E.14496
G1 X115.783 Y114.563 E.01314
G1 X115.783 Y119.186 E.14496
G1 X116.201 Y119.186 E.01314
G1 X116.201 Y114.563 E.14496
G1 X116.62 Y114.563 E.01314
G1 X116.62 Y119.186 E.14496
G1 X117.039 Y119.186 E.01314
G1 X117.039 Y114.563 E.14496
G1 X117.458 Y114.563 E.01314
G1 X117.458 Y119.186 E.14496
G1 X117.877 Y119.186 E.01314
G1 X117.877 Y114.563 E.14496
G1 X118.296 Y114.563 E.01314
G1 X118.296 Y119.186 E.14496
G1 X118.715 Y119.186 E.01314
G1 X118.715 Y114.563 E.14496
G1 X119.134 Y114.563 E.01314
G1 X119.134 Y119.186 E.14496
G1 X119.553 Y119.186 E.01314
G1 X119.553 Y114.563 E.14496
G1 X119.972 Y114.563 E.01314
G1 X119.972 Y119.186 E.14496
G1 X120.391 Y119.186 E.01314
G1 X120.391 Y114.563 E.14496
G1 X120.81 Y114.563 E.01314
G1 X120.81 Y119.186 E.14496
G1 X121.229 Y119.186 E.01314
G1 X121.229 Y114.563 E.14496
G1 X121.648 Y114.563 E.01314
G1 X121.648 Y119.186 E.14496
G1 X122.067 Y119.186 E.01314
G1 X122.067 Y114.563 E.14496
G1 X122.486 Y114.563 E.01314
G1 X122.486 Y119.186 E.14496
G1 X122.905 Y119.186 E.01314
M73 Q9 S10
G1 X122.905 Y114.563 E.14496
G1 X123.324 Y114.563 E.01314
M73 P9 R10
G1 X123.324 Y119.186 E.14496
G1 X123.743 Y119.186 E.01314
G1 X123.743 Y114.563 E.14496
G1 X124.162 Y114.563 E.01314
G1 X124.162 Y119.186 E.14496
G1 X124.581 Y119.186 E.01314
G1 X124.581 Y114.563 E.14496
G1 X125 Y114.563 E.01314
G1 X125 Y119.186 E.14496
G1 X125.419 Y119.186 E.01314
G1 X125.419 Y114.563 E.14496
G1 X125.838 Y114.563 E.01314
G1 X125.838 Y119.186 E.14496
G1 X126.257 Y119.186 E.01314
G1 X126.257 Y114.563 E.14496
G1 X126.676 Y114.563 E.01314
G1 X126.676 Y119.186 E.14496
G1 X127.095 Y119.186 E.01314
G1 X127.095 Y114.563 E.14496
G1 X127.514 Y114.563 E.01314
G1 X127.514 Y119.186 E.14496
G1 X127.933 Y119.186 E.01314
G1 X127.933 Y114.563 E.14496
G1 X128.352 Y114.563 E.01314
G1 X128.352 Y119.186 E.14496
G1 X128.771 Y119.186 E.01314
G1 X128.771 Y114.563 E.14496
G1 X129.19 Y114.563 E.01314
G1 X129.19 Y119.186 E.14496
G1 X129.609 Y119.186 E.01314
G1 X129.609 Y114.563 E.14496
G1 X130.028 Y114.563 E.01314
G1 X130.028 Y119.186 E.14496
G1 X130.447 Y119.186 E.01314
G1 X130.447 Y114.563 E.14496
G1 X130.866 Y114.563 E.01314
G1 X130.866 Y119.186 E.14496
G1 X131.285 Y119.186 E.01314
G1 X131.285 Y114.563 E.14496
G1 X131.704 Y114.563 E.01314
G1 X131.704 Y119.186 E.14496
G1 X132.123 Y119.186 E.01314
G1 X132.123 Y114.563 E.14496
G1 X132.542 Y114.563 E.01314
G1 X132.542 Y119.186 E.14496
G1 X132.961 Y119.186 E.01314
G1 X132.961 Y114.563 E.14496
G1 X133.38 Y114.563 E.01314
G1 X133.38 Y119.186 E.14496
G1 X133.799 Y119.186 E.01314
G1 X133.799 Y114.563 E.14496
M73 Q10 S10
G1 X134.217 Y114.563 E.01314
M73 P10 R10
G1 X134.217 Y119.186 E.14496
G1 X134.636 Y119.186 E.01314
G1 X134.636 Y114.563 E.14496
G1 X135.055 Y114.563 E.01314
G1 X135.055 Y119.186 E.14496
G1 X135.474 Y119.186 E.01314
G1 X135.474 Y114.563 E.14496
G1 X135.893 Y114.533 E.01317
G1 X135.893 Y119.186 E.14591
G1 X136.312 Y119.186 E.01314
G1 X136.312 Y114.425 E.14928
G1 X136.731 Y114.226 E.01455
G1 X136.731 Y119.186 E.15554
G1 X137.15 Y119.186 E.01314
G1 X137.15 Y113.903 E.16565
G1 X137.353 Y113.678 E.00949
G1 X137.569 Y113.351 E.01229
G1 X137.569 Y119.356 E.18828
M204 S1000
G1 X112.012 Y119.356 F10800
M204 S800
G1 F1200
G1 X112.012 Y90.814 E.89493
G1 X111.593 Y90.814 E.01314
G1 X111.593 Y119.186 E.88961
G1 X111.174 Y119.186 E.01314
G1 X111.174 Y90.814 E.88961
G1 X110.755 Y90.814 E.01314
M73 P11 R10
M73 Q11 S10
G1 X110.755 Y119.186 E.88961
G1 X110.336 Y119.186 E.01314
G1 X110.336 Y90.814 E.88961
G1 X109.917 Y90.814 E.01314
G1 X109.917 Y119.186 E.88961
G1 X109.498 Y119.186 E.01314
G1 X109.498 Y90.814 E.88961
G1 X109.079 Y90.814 E.01314
G1 X109.079 Y119.186 E.88961
G1 X108.66 Y119.186 E.01314
M73 P12 R10
M73 Q12 S10
G1 X108.66 Y90.644 E.89493
M204 S1000
;WIPE_START
G1 F8640
G1 X108.66 Y93.935 E-.76
;WIPE_END
G1 E-.04 F2100
G1 Z.6 F720
G1 X135.965 Y97.325 F10800
G1 Z.2 F720
G1 E.8 F2100
M204 S800
;TYPE:Perimeter
;WIDTH:0.419999
G1 F1200
G1 X136.098 Y97.525 E.00752
G1 X136.156 Y97.889 E.01158
G1 X136.157 Y112.178 E.448
G1 X136.056 Y112.555 E.01223
G1 X135.808 Y112.792 E.01077
G1 X135.496 Y112.867 E.01005
G1 X114.532 Y112.867 E.65731
G1 X114.155 Y112.766 E.01223
G1 X113.918 Y112.518 E.01077
G1 X113.843 Y112.206 E.01005
G1 X113.843 Y97.822 E.451
G1 X113.944 Y97.445 E.01223
G1 X114.192 Y97.208 E.01077
G1 X114.504 Y97.133 E.01005
G1 X135.401 Y97.134 E.6552
G1 X135.765 Y97.192 E.01158
G1 X135.915 Y97.292 E.00564
M204 S1000
G1 X136.236 Y97.053 F10800
M204 S800
;TYPE:External perimeter
G1 F1200
G1 X136.453 Y97.377 E.0122
G1 X136.534 Y97.889 E.01626
G1 X136.534 Y112.103 E.44565
G1 X136.452 Y112.628 E.01666
G1 X136.308 Y112.869 E.00881
M73 Q13 S10
G1 X135.996 Y113.125 E.01264
G1 X135.832 Y113.183 E.00546
G1 X135.514 Y113.244 E.01015
G1 X114.607 Y113.244 E.65552
G1 X114.082 Y113.162 E.01666
M73 P13 R10
G1 X113.841 Y113.018 E.00881
G1 X113.585 Y112.706 E.01264
G1 X113.527 Y112.542 E.00546
G1 X113.466 Y112.224 E.01015
G1 X113.466 Y97.897 E.44921
G1 X113.548 Y97.372 E.01666
G1 X113.692 Y97.131 E.00881
G1 X114.004 Y96.875 E.01264
G1 X114.168 Y96.817 E.00546
G1 X114.486 Y96.756 E.01015
G1 X135.401 Y96.756 E.65577
G1 X135.913 Y96.837 E.01626
G1 X136.187 Y97.02 E.01032
M204 S1000
G1 X136.142 Y97.431 F10800
;WIPE_START
G1 F8640
G1 X136.453 Y97.377 E-.10281
G1 X136.534 Y97.889 E-.11977
G1 X136.534 Y100.217 E-.53742
;WIPE_END
G1 E-.04 F2100
G1 Z.6 F720
G1 X134.946 Y97.247 F10800
G1 Z.2 F720
G1 E.8 F2100
M204 S800
;TYPE:Solid infill
;WIDTH:0.422146
G1 F1200
G1 X135.874 Y98.175 E.04139
G1 X135.874 Y98.711 E.01691
G1 X134.579 Y97.416 E.05774
G1 X134.043 Y97.416 E.01691
G1 X135.874 Y99.247 E.08166
G1 X135.874 Y99.784 E.01691
G1 X133.506 Y97.416 E.10557
G1 X132.97 Y97.416 E.01691
G1 X135.874 Y100.32 E.12949
G1 X135.874 Y100.856 E.01691
G1 X132.434 Y97.416 E.15341
G1 X131.897 Y97.416 E.01691
G1 X135.874 Y101.393 E.17732
G1 X135.874 Y101.929 E.01691
G1 X131.361 Y97.416 E.20124
G1 X130.825 Y97.416 E.01691
G1 X135.874 Y102.465 E.22516
G1 X135.874 Y103.002 E.01691
G1 X130.288 Y97.416 E.24907
G1 X129.752 Y97.416 E.01691
G1 X135.874 Y103.538 E.27299
G1 X135.874 Y104.074 E.01691
G1 X129.216 Y97.416 E.29691
G1 X128.679 Y97.416 E.01691
M73 Q14 S10
G1 X135.874 Y104.611 E.32083
G1 X135.874 Y105.147 E.01691
M73 P14 R10
G1 X128.143 Y97.416 E.34474
G1 X127.607 Y97.416 E.01691
G1 X135.874 Y105.683 E.36866
G1 X135.874 Y106.22 E.01691
G1 X127.071 Y97.416 E.39258
G1 X126.534 Y97.416 E.01691
G1 X135.874 Y106.756 E.41649
G1 X135.874 Y107.292 E.01691
G1 X125.998 Y97.416 E.44041
G1 X125.462 Y97.416 E.01691
G1 X135.874 Y107.828 E.46433
G1 X135.874 Y108.365 E.01691
G1 X124.925 Y97.416 E.48824
G1 X124.389 Y97.416 E.01691
G1 X135.874 Y108.901 E.51216
G1 X135.874 Y109.437 E.01691
G1 X123.853 Y97.416 E.53608
G1 X123.316 Y97.416 E.01691
M73 Q15 S10
G1 X135.874 Y109.974 E.56
G1 X135.874 Y110.51 E.01691
M73 P15 R10
G1 X122.78 Y97.416 E.58391
G1 X122.244 Y97.416 E.01691
G1 X135.874 Y111.046 E.60783
G1 X135.874 Y111.583 E.01691
G1 X121.707 Y97.416 E.63175
G1 X121.171 Y97.416 E.01691
G1 X135.874 Y112.119 E.65566
G1 X135.827 Y112.387 E.00858
G1 X135.718 Y112.499 E.00494
G1 X120.635 Y97.416 E.67262
